X:195
T:The Backroad's Country Breakdo
R:reel
C:Bruce Osborne - Mar. 2002
Z:abc by bosborne@kos.net
M:2/4
L:1/8
K:Cmaj
G/F/|E/C/B,/C/ E/G/c/e/|a/g/e/a/ g/e/c/e/|d/c/d/e/ f/d/B/d/|c/B/c/A/ GG/F/|\
E/C/B,/C/ E/G/c/e/|a/g/e/a/ g/e/c/e/|d/c/d/e/ f/d/B/d/|c/A/G/E/ C:|\
K:GMajor
|:B,/C/|D/B,/D/G/ BA/B/|c/A/F/A/ GB/c/|d/g/f/g/ e/c/A/F/|G/F/G/E/ DB,/C/|\
D/B,/D/G/ BA/B/|c/A/F/A/ GB/c/|d/g/f/g/ e/c/A/F/|G/B/A/F/ G:|
